symbols/web/vibration/materialsymbolsoutlined/vibration_wght700grad200fill1_20px.svg

<svg xmlns="http://www.w3.org/2000/svg" height="20" width="20"><path d="M-.375 12.604V7.396h1.958v5.208Zm2.563 1.688V5.708h1.958v8.584Zm16.229-1.688V7.396h1.958v5.208Zm-2.563 1.688V5.708h1.958v8.584ZM7.667 17.75q-1.209 0-2.063-.844-.854-.844-.854-2.073V5.167q0-1.229.854-2.073.854-.844 2.063-.844h4.666q1.209 0 2.063.844.854.844.854 2.073v9.666q0 1.229-.854 2.073-.854.844-2.063.844Z"/></svg>

<svg xmlns="http://www.w3.org/2000/svg" height="20" width="20"><path d="M-0.375 12.604V7.396H1.583V12.604ZM2.188 14.292V5.708H4.146V14.292ZM18.417 12.604V7.396H20.375V12.604ZM15.854 14.292V5.708H17.812V14.292ZM7.667 17.75Q6.458 17.75 5.604 16.906Q4.75 16.062 4.75 14.833V5.167Q4.75 3.938 5.604 3.094Q6.458 2.25 7.667 2.25H12.333Q13.542 2.25 14.396 3.094Q15.25 3.938 15.25 5.167V14.833Q15.25 16.062 14.396 16.906Q13.542 17.75 12.333 17.75Z"/></svg>
